controller/x68000.svg

<?xml version="1.0" encoding="UTF-8"?>
<!-- Generator: Adobe Illustrator 22.0.0, SVG Export Plug-In . SVG Version: 6.00 Build 0)  -->
<svg id="Capa_1" baseProfile="tiny" version="1.1" viewBox="0 0 106.9 165.7" xml:space="preserve" xmlns="http://www.w3.org/2000/svg">

	<path d="m103.9 82.7-5.7-58.3c0-3.9-3-7-6.6-7h-75.6c-3.6 0-6.6 3.2-6.6 7l-6.4 58.3c9.9-18 28.6-31 50.2-31 21.9 0 40.9 12.6 50.7 31z" fill="#2B3138"/>
	<path d="m3.1 82c9.9-18 29-31 50.6-31 21.9 0 40.7 13.3 50.5 31.7 0 0 1.7 17.3 1.7 17.3-4.9-25.1-26.5-44-52.4-44s-47.5 18.9-52.4 44l2-18z" fill="#221A1F"/>
	<ellipse cx="53.5" cy="110.9" rx="53.5" ry="54.9" fill="#2B3138"/>
	
		<g fill="#31383F">
			<path d="m26.1 35.6c1.3 0.9 3 1.4 4.7 1.4s3.4-0.5 4.7-1.4h-9.4z"/>
			<path d="m24.4 34.2h12.7c0.4-0.4 0.7-0.9 1-1.4h-14.7c0.3 0.5 0.6 1 1 1.4z"/>
			<path d="m22.7 31.4h16c0.2-0.5 0.3-0.9 0.4-1.4 0-0.2 0.1-0.5 0.1-0.7h-16.9c0 0.2 0 0.5 0.1 0.7 0.1 0.4 0.2 0.9 0.3 1.4"/>
			<path d="m39.2 27.8c0-0.2 0-0.5-0.1-0.7-0.1-0.5-0.2-1-0.4-1.4h-16c-0.2 0.5-0.3 0.9-0.4 1.4 0 0.2-0.1 0.5-0.1 0.7h17"/>
			<path d="m24.4 22.8h12.7c0.4 0.4 0.7 0.9 1 1.4h-14.7c0.3-0.4 0.6-0.9 1-1.4z"/>
			<path d="m35.5 21.4c-1.3-0.9-3-1.4-4.7-1.4s-3.4 0.5-4.7 1.4h9.4z"/>
		</g>
		
			<polygon points="100.4 46.6 7 46.6 7.1 45.6 52.6 45.6 52.6 17.4 53.6 17.4 53.6 45.6 100.3 45.6" fill="#221A1F"/>
		
		<path d="m56.9 56.2c-0.7 0-1.4 0.5-1.4 1.3l-1.5 26c0 0.7 0.5 1.4 1.3 1.4 0.7 0 1.4-0.5 1.4-1.3l1.4-26.1c0.1-0.6-0.5-1.3-1.2-1.3z" fill="#31383F"/>
	
	
		<path d="m54.8 17.4h-3.1c0.4-1.5 0.9-4.8-0.5-7.8-1.7-4-6.1-6.6-11.2-6.8-0.2 0-0.4-0.2-0.4-0.4v-2.1c0-0.3 0.2-0.5 0.5-0.5 6.2 0.2 11.6 3.5 13.9 8.6 1.7 3.7 1.3 7.1 0.8 9z" fill="#1E1B1D"/>
	

</svg>

<?xml version="1.0" encoding="utf-8"?>
<!-- Generator: Adobe Illustrator 22.0.0, SVG Export Plug-In . SVG Version: 6.00 Build 0)  -->
<svg version="1.1" baseProfile="tiny" id="Capa_1" xmlns="http://www.w3.org/2000/svg" xmlns:xlink="http://www.w3.org/1999/xlink"
	 x="0px" y="0px" viewBox="0 0 106.9 165.7" xml:space="preserve">
<g>
	<path fill="#2B3138" d="M103.9,82.7l-5.7-58.3c0-3.9-3-7-6.6-7H16c-3.6,0-6.6,3.2-6.6,7c0,0-6.4,58.3-6.4,58.3
		c9.9-18,28.6-31,50.2-31C75.1,51.7,94.1,64.3,103.9,82.7z"/>
	<path fill="#221A1F" d="M3.1,82c9.9-18,29-31,50.6-31c21.9,0,40.7,13.3,50.5,31.7c0,0,1.7,17.3,1.7,17.3C101,74.9,79.4,56,53.5,56
		C27.6,56,6,74.9,1.1,100C1.1,100,3.1,82,3.1,82z"/>
	<ellipse fill="#2B3138" cx="53.5" cy="110.9" rx="53.5" ry="54.9"/>
	<g>
		<g>
			<path fill="#31383F" d="M26.1,35.6c1.3,0.9,3,1.4,4.7,1.4c1.7,0,3.4-0.5,4.7-1.4C35.5,35.6,26.1,35.6,26.1,35.6z"/>
			<path fill="#31383F" d="M24.4,34.2h12.7c0.4-0.4,0.7-0.9,1-1.4H23.4C23.7,33.3,24,33.8,24.4,34.2z"/>
			<path fill="#31383F" d="M22.7,31.4h16c0.2-0.5,0.3-0.9,0.4-1.4c0-0.2,0.1-0.5,0.1-0.7c0,0-16.9,0-16.9,0c0,0.2,0,0.5,0.1,0.7
				C22.5,30.4,22.6,30.9,22.7,31.4"/>
			<path fill="#31383F" d="M39.2,27.8c0-0.2,0-0.5-0.1-0.7c-0.1-0.5-0.2-1-0.4-1.4c0,0-16,0-16,0c-0.2,0.5-0.3,0.9-0.4,1.4
				c0,0.2-0.1,0.5-0.1,0.7L39.2,27.8"/>
			<path fill="#31383F" d="M24.4,22.8h12.7c0.4,0.4,0.7,0.9,1,1.4c0,0-14.7,0-14.7,0C23.7,23.8,24,23.3,24.4,22.8z"/>
			<path fill="#31383F" d="M35.5,21.4c-1.3-0.9-3-1.4-4.7-1.4c-1.7,0-3.4,0.5-4.7,1.4C26.1,21.4,35.5,21.4,35.5,21.4z"/>
		</g>
		<g>
			<polygon fill="#221A1F" points="100.4,46.6 7,46.6 7.1,45.6 52.6,45.6 52.6,17.4 53.6,17.4 53.6,45.6 100.3,45.6 			"/>
		</g>
		<path fill="#31383F" d="M56.9,56.2L56.9,56.2c-0.7,0-1.4,0.5-1.4,1.3L54,83.5c0,0.7,0.5,1.4,1.3,1.4h0c0.7,0,1.4-0.5,1.4-1.3
			l1.4-26.1C58.2,56.9,57.6,56.2,56.9,56.2z"/>
	</g>
	<g>
		<path fill="#1E1B1D" d="M54.8,17.4h-3.1c0.4-1.5,0.9-4.8-0.5-7.8C49.5,5.6,45.1,3,40,2.8c-0.2,0-0.4-0.2-0.4-0.4l0-2.1
			c0-0.3,0.2-0.5,0.5-0.5C46.3,0,51.7,3.3,54,8.4C55.7,12.1,55.3,15.5,54.8,17.4z"/>
	</g>
</g>
</svg>
